X:20024
T:Tobin's Favourite
R:Jig
C:Trad.
O:Ireland
Z:Paul Hardy's Session Tunebook 2015 (see www.paulhardy.net). Creative Commons cc by-nc-sa licenced.
M:6/8
L:1/8
Q:3/8=100
K:D
"D" DFA dcd|"A" ecA cde|"D" fdf "G" gfg|"A7" ecA GFE|
"D" DFA dcd|"A" ecA cde|"D" faf "G" gec|"A7" edc "D" d3:|
|:"D" dfa agf|"G" efg efg|"D" fdf "G" gfg|"A7" ecA GFE|
"D" DFA dcd|"A" ecA cde|"D" faf "G" gec|"A7" edc "D" d3:|

